X:1
T:The Sicilian Plan
T:The Sicilian Clan 
T:film score adaptation 
T:Ennio Morricone arr. Veronica Jakubowski 
C:Ennio Morricone
%%score 1 2 3 4
L:1/8
Q:1/4=105
M:4/4
K:C
V:1 treble nm="Violin" snm="Vln."
V:2 alto nm="Viola" snm="Vla."
V:3 bass nm="Violoncello" snm="Vc."
V:4 bass transpose=-12 nm="Contrabass" snm="Cb."
V:1
"^A" z8 | z8 | z8 | z8 |"^B" z8 | z8 | z8 | z8 | z8 | z8 | z8 | z8 | z8 | z8 | z8 | z8 | z8 | z8 | %18
"Am""^C""_Expression"!f! a8 | c'4 b4 |"Gm6" _b8 |"D" a8- | a4 c'4 |"E7" b6 _b2 |"Am" a8 | %25
"F#dim" c'8 |"Bdim" b4"Bb" _b4 |"Am" _b4 a4- | a4 c'4 |"E7" b4 _b4 |"Am" a8- | a4 z4 | %32
"Am""^D"!mp!{f} e8- | e4 !//!f2 !//!g2 |"E7" f2 e6- | e4 z4 |"Gm6" e8- | e4 !//!g2 !//!f2 | %38
"Em7b5" f2 e6- | e4 !//!d2 !//!^c2 |"D6" d8- | d4 !//!e4 |"Dm6"!<(! e2 d6-!<)! | %43
 d2 !//!^c2 !//!e2 !//!d2 |"Ddim"!mf! d8 | !//!c4 !//!B4 |"E7" e2 d6- | d4 !//!c2 !//!B2 | %48
"Am" c2 c6- | c4 !//!B2 !//!A2 |"Cdim" d2 c6- | c2 !//!A2 !//!d3 c |"E7" B8 | %53
"Em7b5" _B4 !//!A2 !//!^G2 |"Am" B2 A6- | A4 z4 |] z8 | z8 | z8 | z8 | z8 | z8 | z8 | z8 | z8 | %65
 z8 | z8 | z8 | z8 | z8 | z8 | z8 | z8 | z8 | z8 | z8 | z8 | z8 | z8 | z8 | z8 | z8 | z8 | z8 | %84
 z8 | z8 | z8 | z8 | z8 | z8 | z8 | z8 | z8 | z8 | z8 | z8 |] %96
V:2
 z8 | z8 | z8 | z8 | z8 | z8 | z8 | z8 | z8 | z8 | z8 | z8 | z8 | z8 | z8 | z8 | z8 | z8 | %18
"Am""_Expression"!f! A8 | c4 B4 |"Gm6" G8 |"D" A8- | A4 c4 |"E7" B6 _B2 |"Am" E8 |"F#dim" G8 | %26
"Bdim" B4"Bb" _B4 |"Am" _B4 A4- | A4 c4 |"E7" B4 _B4 |"Am" A8- | A4 z4 |"Am"!mp!{F} E8- | %33
 E4 !//!F2 !//!G2 |"E7" F2 D6- | D4 z4 |"Gm6" D8- | D4 !//!G2 !//!F2 |"Em7b5" F2 E6- | %39
 E4 !//!D2 !//!_D2 |"D6" A,8- | A,4 !//!B,4 |"Dm6"!<(! E2 D6-!<)! | D2 !//!B,2 !//!C2 !//!D2 | %44
"Ddim"!mf! D8 | !//!C4 !//!B,4 |"E7" E2 D6- | D4 !//!C2 !//!B,2 |"Am" C2 C6- | C4 !//!B,2 !//!A,2 | %50
"Cdim" D2 C6- | C2 !//!A,2 !//!B,3 A, |"E7" G,8 |"Em7b5" _B,4 !//!A,2 !//!^G,2 |"Am" B,2 A,6- | %55
 A,4 z4 |] z8 | z8 | z8 | z8 | z8 | z8 | z8 | z8 | z8 | z8 | z8 | z8 | z8 | z8 | z8 | z8 | z8 | %73
 z8 | z8 | z8 | z8 | z8 | z8 | z8 | z8 | z8 | z8 | z8 | z8 | z8 | z8 | z8 | z8 | z8 | z8 | z8 | %92
 z8 | z8 | z8 | z8 |] %96
V:3
 z8 | z8 | z8 | z8 |"Am" z!mf! (A,CA, E) z z (A, | CA,E) z z (_A,B,A, |"Gm6" E) z z (G, _B,G,E) z | %7
"D" z (^F,A,F, D) z z (F, | A,^F,D) z z"Dm" (=F,A,F,) |"E7" D z z (E, ^G,E,D) z | %10
"Am" z (E,A,E, C) z z (E, | A,E,C) z z (^D,^F,D, | B,) z z (D,"Bb" F,D,_B,) z | %13
"Am" z (^C,E,C, A,) z z =C, | (E,C,A,) z z (C,E,A, |"E7" ^G,) z z (E, DCD z | %16
"Am"!>(! A,6) z2!>)!!p! | z8 |"Am" z!mf! (A,CA, E) z z (A, | CA,E) z z (_A,B,A, | %20
"Gm6" E) z z (G, _B,G,E) z |"D" z (^F,A,F, D) z z (F, | A,^F,D) z z"Dm" (=F,A,F,) | %23
"E7" D z z (E, ^G,E,D) z |"Am" z (E,A,E, C) z z (E, | A,E,C) z z (^D,^F,D, | %26
 B,) z z (D,"Bb" F,D,_B,) z |"Am" z (^C,E,C, A,) z z =C, | (E,C,A,) z z (C,E,A, | %29
"E7" ^G,) z z (E, DCD z |"Am" A,6) z2 | z8 | z!p! A,CA, E2 z A, | CA, E2 z4 | z _A,B,A, E2 z A, | %35
 B,_A, E2 z4 | z G,_B,G, E2 z G, | _B,G,E z z4 | z G,_B,G, E2 z G, | _B,G,E z z4 | %40
 z ^F,A,F, D2 z F, | A,^F, D2 z4 | z F,A,F, D2 z F, | A,F, D2 z4 | z F,_A,F, D2 z F, | %45
 _A,F, D2 z4 | z E,_A,E, D2 z E, | _A,E, D2 z4 | z E,A,E, C2 z E, | A,E, C2 z4 | %50
 z _E,A,E, C2 z E, | A,_E, C2 z4 | z D,F,D, B,2 z D, | F,D, _B,2 z4 | z C,E,C, A,2 z C, | %55
 E,C"_dim." A,6 |] z8 | z8 | z8 | z8 | z8 | z8 | z8 | z8 | z8 | z8 | z8 | z8 | z8 | z8 | z8 | z8 | %72
 z8 | z8 | z8 | z8 | z8 | z8 | z8 | z8 | z8 | z8 | z8 | z8 | z8 | z8 | z8 | z8 | z8 | z8 | z8 | %91
 z8 | z8 | z8 | z8 | z8 |] %96
V:4
"_pizz."!mp! .uA,2 z .uA, .vE,2 .vE,2 | .uA,2 z .uA, .vE,2 .vE,2 | .uA,2 z .uA, .vE,2 .vE,2 | %3
 .uA,2 z .uA, .vE,2 .vE,2 |!mp! .uA,2 z .uA, .vA,2 .vA,2 | .uA,2 z .uA, .vE,2 .vE,2 | %6
 .uG,2 z .uG, .vA,2 .vA,2 | .uD,2 z .uD, .vD,2 z2 | .uD,2 z .uD, .vD,2 .vD,2 | %9
 .uE,2 z .uE, .vE,2 .vE,2 | .uA,2 z .uA, .vA,2 .vA,2 | .uA,2 z .uA, .vD,2 .vD,2 | %12
 .uE,2 z .uE, .vE,2 z2 | .uA,2 z .uA, .vA,2 z2 | .uA,2 z .uA, .vA,2 .vA,2 | .uE,2 z .uE, .vE,2 z2 | %16
 .uA,2 z .uA, .vA,2 z2 | .uA,2 z .uA, .vA,2 z2 |!mf! .uA,2 z .uA, .vE,2 .vE,2 | %19
 .uA,2 z .uA, .vE,2 .vE,2 | .uG,2 z .uG, .vA,2 .vA,2 | .uD,2 z .uD, .vD,2 z2 | %22
 .uD,2 z .uD, .vD,2 .vD,2 | .uE,2 z .uE, .vE,2 .vE,2 | .uA,2 z .uA, .vA,2 .vA,2 | %25
 .uA,2 z .uA, .vD,2 .vD,2 | .uE,2 z .uE, .vE,2 z2 | .uA,2 z .uA, .vA,2 z2 | %28
 .uA,2 z .uA, .vA,2 .vA,2 | .uE,2 z .uE, .vE,2 z2 | .uA,2 z .uA, .vA,2 z2 | .uA,2 z .uA, .vA,2 z2 | %32
!p! (uA,2 z uA, vE,2 vE,2) | (uA,2 z uA, vE,2 vE,2) | (uB,2 z uB, vE,2 vE,2) | %35
 (uB,2 z uB, vE,2 vE,2) | (uG,2 z uG, vE,2 vE,2) | (uG,2 z uG, vE,2 vE,2) | %38
 (uA,2 z uA, vE,2 vE,2) | (uA,2 z uA, vE,2 vE,2) | (uD,2 z uD, vA,2 vA,2) | %41
 (uD,2 z uD, vA,2 vA,2) | (uD,2 z uD, vA,2 vA,2) | (uD,2 z uD, vA,2 vA,2) | %44
 (uG,2 z uG, vE,2 vE,2) | (uG,2 z uG, vE,2 vE,2) | (uE,2 z uE, vC2 vC2) | (uE,2 z uE, vC2 vC2) | %48
 (uA,2 z uA, vE,2 vE,2) | (uA,2 z uA, vE,2 vE,2) | (u_E,2 z uE, vA,2 vA,2) | %51
 (u_E,2 z uE, vA,2 vA,2) | (uE,2 z uE, vB,2 vB,2) | (uE,2 z uE, v_B,2 vB,2) | %54
 (uE,2 z uE, vA,2 vA,2) | uA,8 |] z8 | z8 | z8 | z8 | z8 | z8 | z8 | z8 | z8 | z8 | z8 | z8 | z8 | %69
 z8 | z8 | z8 | z8 | z8 | z8 | z8 | z8 | z8 | z8 | z8 | z8 | z8 | z8 | z8 | z8 | z8 | z8 | z8 | %88
 z8 | z8 | z8 | z8 | z8 | z8 | z8 | z8 |] %96

